src/assets/outline/SidebarLeft.svg

<svg width="24" height="24" viewBox="0 0 24 24"  xmlns="http://www.w3.org/2000/svg">
<path d="M14.9702 22.75H8.97021C3.54022 22.75 1.22021 20.43 1.22021 15V9C1.22021 3.57 3.54022 1.25 8.97021 1.25H14.9702C20.4002 1.25 22.7202 3.57 22.7202 9V15C22.7202 20.43 20.4102 22.75 14.9702 22.75ZM8.97021 2.75C4.36021 2.75 2.72021 4.39 2.72021 9V15C2.72021 19.61 4.36021 21.25 8.97021 21.25H14.9702C19.5802 21.25 21.2202 19.61 21.2202 15V9C21.2202 4.39 19.5802 2.75 14.9702 2.75H8.97021Z" />
<path d="M7.97021 22.75C7.56021 22.75 7.22021 22.41 7.22021 22V2C7.22021 1.59 7.56021 1.25 7.97021 1.25C8.38021 1.25 8.72022 1.59 8.72022 2V22C8.72022 22.41 8.39021 22.75 7.97021 22.75Z" />
<path d="M14.9701 15.3099C14.7801 15.3099 14.5901 15.2399 14.4401 15.0899L11.8801 12.5299C11.5901 12.2399 11.5901 11.7599 11.8801 11.4699L14.4401 8.90988C14.7301 8.61988 15.2101 8.61988 15.5001 8.90988C15.7901 9.19988 15.7901 9.67988 15.5001 9.96988L13.4801 11.9999L15.5101 14.0299C15.8001 14.3199 15.8001 14.7999 15.5101 15.0899C15.3601 15.2399 15.1701 15.3099 14.9701 15.3099Z" />
</svg>

<?xml version="1.0" encoding="UTF-8"?>
<svg width="24" height="24" viewBox="0 0 24 24" xmlns="http://www.w3.org/2000/svg">
 <path d="m14.97 22.75h-6c-5.43 0-7.75-2.32-7.75-7.75v-6c0-5.43 2.32-7.75 7.75-7.75h6c5.43 0 7.75 2.32 7.75 7.75v6c0 5.43-2.31 7.75-7.75 7.75zm-6-20c-4.61 0-6.25 1.64-6.25 6.25v6c0 4.61 1.64 6.25 6.25 6.25h6c4.61 0 6.25-1.64 6.25-6.25v-6c0-4.61-1.64-6.25-6.25-6.25h-6z"/>
 <path d="m7.9702 22.75c-0.41 0-0.75-0.34-0.75-0.75v-20c0-0.41 0.34-0.75 0.75-0.75s0.75001 0.34 0.75001 0.75v20c0 0.41-0.33001 0.75-0.75001 0.75z"/>
 <path d="m14.97 15.31c-0.19 0-0.38-0.07-0.53-0.22l-2.56-2.56c-0.29-0.29-0.29-0.77 0-1.06l2.56-2.56c0.29-0.29 0.77-0.29 1.06 0s0.29 0.77 0 1.06l-2.02 2.03 2.03 2.03c0.29 0.29 0.29 0.77 0 1.06-0.15 0.15-0.34 0.22-0.54 0.22z"/>
</svg>
